!!!COM: Prokofiev, Sergey (Sergeyevich)
!!!OTL: Piano Concerto No. 3 in C Major, op. 26
!!!OMV: II: Tema con variazioni (Theme and Variations)
!!!example: 569
!!!work: Pro-13
**kern	**dynam	**kern	**dynam	**kern	**dynam	**kern	**dynam	**kern	**dynam	**kern	**kern	**dynam
*part6	*part6	*part5	*part5	*part4	*part4	*part3	*part3	*part2	*part2	*part1	*part1	*part1
*staff7	*	*staff6	*	*staff5	*	*staff4	*	*staff3	*	*staff2	*staff1	*
*I"Contrabass	*	*I"Violoncello Contrabass	*	*I"Viola	*	*I"Violin II	*	*I"Violin I	*	*I"Piano	*	*
*I'Cb.	*	*I'Vc. Bc.	*	*I'Vla.	*	*I'Vln. II	*	*I'Vln. I	*	*I'Pno.	*	*
!!pagebreak:original
*clefF4	*	*clefF4	*	*clefC3	*	*clefG2	*	*clefG2	*	*clefF4	*clefG2	*
*Trd0c0	*	*	*	*	*	*	*	*	*	*	*	*
*k[]	*	*k[]	*	*k[]	*	*k[]	*	*k[]	*	*k[]	*k[]	*
*C:	*	*C:	*	*C:	*	*C:	*	*C:	*	*C:	*C:	*
*M12/8	*	*M12/8	*	*M12/8	*	*M12/8	*	*M12/8	*	*M12/8	*M12/8	*
*MM121	*	*MM121	*	*MM121	*	*MM121	*	*MM121	*	*MM121	*MM121	*
=65	=65	=65	=65	=65	=65	=65	=65	=65	=65	=65	=65	=65
!	!	!LO:TX:t=[quarter]=120	!	!	!	!	!	!	!	!	!LO:TX:t=[quarter]=120	!
!	!	!LO:TX:B:t=  Allegro moderato (poco meno mosso)	!	!	!	!	!	!	!	!	!LO:TX:t=128	!
!	!	!LO:TX:t=arco	!	!	!	!	!	!	!	!	!LO:TX:B:t=  Allegro moderato (poco meno mosso)	!
!	!	!LO:TX:t=44	!	!	!	!	!	!	!	!	!LO:TX:t=Var. III	!
!	!	!LO:TX:t=Tutti	!	!	!	!	!	!	!	!	!LO:TX:t=128	!
*	*	*	*	*	*	*	*	*	*	*^	*^	*
2%3r	.	8C^L	f	2%3r	.	2%3r	.	2%3r	.	8ryy	8CL	8ryy	8eL	.
.	.	8ryy	.	.	.	.	.	.	.	8ryy	8E-XJ	8ryy	8gJ	.
.	.	8r	.	.	.	.	.	.	.	4B^	8BL	4ee^	8ee-XL	.
.	.	8BB^	.	.	.	.	.	.	.	.	8D	.	8g-X	.
.	.	8ryy	.	.	.	.	.	.	.	8ryy	8F#XJ	8ryy	8b-XJ	.
.	.	8r	.	.	.	.	.	.	.	4BB^	8BB-XL	4d^	8dL	.
.	.	8BB-X^	.	.	.	.	.	.	.	.	8Fn	.	8a	.
.	.	8ryy	.	.	.	.	.	.	.	8ryy	8D-XJ	8ryy	8fJ	.
.	.	8r	.	.	.	.	.	.	.	4B-X^	8B-L	4dd^	8ddL	.
.	.	8EE^J	.	.	.	.	.	.	.	.	8A-X	.	8cc	.
.	.	8ryy	.	.	.	.	.	.	.	8ryy	8cJ	8ryy	8eenJ	.
.	.	8r	.	.	.	.	.	.	.	8G^	8GL	8bn^	8bL	.
=66	=66	=66	=66	=66	=66	=66	=66	=66	=66	=66	=66	=66	=66	=66
2%3r	.	8C^L	.	2%3r	.	2%3r	.	2%3r	.	8ryy	8C	8ryy	8e	.
.	.	8ryy	.	.	.	.	.	.	.	8ryy	8E-XJ	8ryy	8gJ	.
.	.	8r	.	.	.	.	.	.	.	4Bn^	8BL	4ee^	8ee-XL	.
.	.	8BB^	.	.	.	.	.	.	.	.	8D	.	8g-X	.
.	.	8ryy	.	.	.	.	.	.	.	8ryy	8F#XJ	8ryy	8b-XJ	.
.	.	8r	.	.	.	.	.	.	.	4BB-X^	8BB-L	4d^	8dL	.
.	.	8BB-X^	.	.	.	.	.	.	.	.	8Fn	.	8a	.
.	.	8ryy	.	.	.	.	.	.	.	8ryy	8D-XJ	8ryy	8fJ	.
.	.	8r	.	.	.	.	.	.	.	4B-X^	8B-L	4dd^	8ddL	.
.	.	8EE^J	.	.	.	.	.	.	.	.	8A-X	.	8cc	.
.	.	8ryy	.	.	.	.	.	.	.	8ryy	8cJ	8ryy	8eenJ	.
.	.	8r	.	.	.	.	.	.	.	8G^	8G	8bn^	8b	.
*	*	*	*	*	*	*	*	*	*	*v	*v	*	*	*
=67	=67	=67	=67	=67	=67	=67	=67	=67	=67	=67	=67	=67	=67
*	*	*^	*	*	*	*	*	*	*	*	*	*	*
!!linebreak:original
2%3r	.	8C^L	8C^	.	4r	.	4r	.	2%3r	.	4c^ 4e	4ff#X	8b-XL	.
.	.	8r	8r	.	.	.	.	.	.	.	.	.	8a	.
.	.	8ryy	8ryy	.	8ryy	.	8ryy	.	.	.	8r	8ffn	8a-XJ	.
.	.	8f#X^	4r	.	8f#X^	f	8ff#X^	f	.	.	8cL 8e	8eeL	8gL	.
.	.	8r	.	.	8r	.	8r	.	.	.	8c-X 8e-X	8ee-X	8g-X	.
.	.	8ryy	8ryy	.	8ryy	.	8ryy	.	.	.	8B-XJ 8d	8ddJ	8fJ	.
.	.	8C^	8C^	.	4r	.	4r	.	.	.	4A^ 4cn	4cc^	8eL	.
.	.	8r	8r	.	.	.	.	.	.	.	.	.	8f	.
.	.	8ryy	8ryy	.	8ryy	.	8ryy	.	.	.	8r	8dd-X	8eJ	.
.	.	8f#^J	4r	.	8f#^	.	8ff#^	.	.	.	8A-XL 8c	8ccL	8e-XL	.
.	.	8r	.	.	8r	.	8r	.	.	.	8G 8Bn	8bn	8d	.
.	.	8ryy	8ryy	.	8ryy	.	8ryy	.	.	.	8FJ 8An	8anJ	8cJ	.
=68	=68	=68	=68	=68	=68	=68	=68	=68	=68	=68	=68	=68	=68	=68
2%3r	.	8AA^L	8AA^	.	4r	.	4r	.	2%3r	.	4E^ 4G	4g^	8BL	.
.	.	8r	8r	.	.	.	.	.	.	.	.	.	8d	.
.	.	8ryy	8ryy	.	8ryy	.	8ryy	.	.	.	8r	8a	8cJ	.
.	.	8g^	4r	.	8g^	.	8gg^	.	.	.	8EL 8G	8gL	8BL	.
.	.	8r	.	.	8r	.	8r	.	.	.	8D 8F	8f	8A	.
.	.	8ryy	8ryy	.	8ryy	.	8ryy	.	.	.	8CJ 8E	8eJ	8GJ	.
.	.	8BB^J	8BB-X^	.	8ryy	.	8ryy	.	.	.	4BB-X 4D	4d	8F	.
.	.	8ryy	8r	.	8ryy	.	8ryy	.	.	.	.	.	4B-X	.
.	.	8ryy	8ryy	.	8dL	f	8ddL	f	.	.	8F	8f	.	.
.	.	8r^yy	4r	.	8dd^J	.	8ddd^J	.	.	.	4B-X^ 4d	4dd	4b-X	.
!	!	!LO:TX:t=Cb.	!	!	!	!	!	!	!	!	!	!	!	!
.	.	8ryy	.	.	8r	.	8r	.	.	.	.	.	.	.
*	*	*	*	*	*	*	*	*	*	*	*^	*	*	*
.	.	8ryy	8ryy	.	8ryy	.	8ryy	.	.	.	8ryy	8G^L	8b-	8b-L	.
*	*	*v	*v	*	*	*	*	*	*	*	*	*	*	*	*
=69	=69	=69	=69	=69	=69	=69	=69	=69	=69	=69	=69	=69	=69	=69
!	!	!LO:TX:t=Vc.	!	!	!	!	!	!	!	!	!	!	!	!
2%3r	.	8C^L	f	2%3r	.	2%3r	.	2%3r	.	8ryy	8C	8ryy	8e-X	.
.	.	8ryy	.	.	.	.	.	.	.	8ryy	8E-XJ	8ryy	8g-XJ	.
.	.	8r	.	.	.	.	.	.	.	4B^	8BL	4dd^	8ddL	.
.	.	8BB^	.	.	.	.	.	.	.	.	8D	.	8f	.
.	.	8ryy	.	.	.	.	.	.	.	8ryy	8F#XJ	8ryy	8aJ	.
.	.	8r	.	.	.	.	.	.	.	4BB^	8BB-XL	4d-X^	8d-L	.
.	.	8BB-X^	.	.	.	.	.	.	.	.	8Fn	.	8a-X	.
.	.	8ryy	.	.	.	.	.	.	.	8ryy	8D-XJ	8ryy	8f-XJ	.
.	.	8r	.	.	.	.	.	.	.	4B-X^	8B-L	4dd-X^	8dd-L	.
.	.	8GG-X^J	.	.	.	.	.	.	.	.	8A-X	.	8cc-X	.
.	.	8ryy	.	.	.	.	.	.	.	8ryy	8cnJ	8ryy	8ee-XJ	.
.	.	8r	.	.	.	.	.	.	.	8G^	8GL	8b-X^	8b-L	.
=70	=70	=70	=70	=70	=70	=70	=70	=70	=70	=70	=70	=70	=70	=70
!!pagebreak:original
8C^L	.	8C^L	.	2%3r	.	2%3r	.	2%3r	.	8ryy	8C	8ryy	8e-X	.
8ryy	.	8ryy	.	.	.	.	.	.	.	8ryy	8E-XJ	8ryy	8g-XJ	.
8r	.	8r	.	.	.	.	.	.	.	4B^	8BnL	4dd^	8ddL	.
8BB^	.	8BB^	.	.	.	.	.	.	.	.	8D	.	8f	.
8ryy	.	8ryy	.	.	.	.	.	.	.	8ryy	8F#XJ	8ryy	8aJ	.
8r	.	8r	.	.	.	.	.	.	.	4BB^	8BB-XL	4d-X^	8d-L	.
8BB-X	.	8BB-X^	.	.	.	.	.	.	.	.	8Fn	.	8a-X	.
8ryy	.	8ryy	.	.	.	.	.	.	.	8ryy	8D-XJ	8ryy	8f-XJ	.
8r	.	8r	.	.	.	.	.	.	.	4B-X^	8B-L	4dd-X^	8dd-L	.
8GG-XJ	.	8GG-X^J	.	.	.	.	.	.	.	.	8A-X	.	8cc-X	.
8ryy	.	8ryy	.	.	.	.	.	.	.	8ryy	8cnJ	8ryy	8ee-XJ	.
*	*	*	*	*	*	*	*	*	*	*v	*v	*	*	*
*	*	*	*	*	*	*	*	*	*	*clefG2	*	*	*
8r	.	8r	.	.	.	.	.	.	.	8g-X	8bb-X	8ryy	.
*	*	*	*	*	*	*	*	*	*	*	*v	*v	*
=71	=71	=71	=71	=71	=71	=71	=71	=71	=71	=71	=71	=71
*M6/8	*	*M6/8	*	*M6/8	*	*M6/8	*	*M6/8	*	*M6/8	*M6/8	*
*	*	*	*	*	*	*	*	*	*	*	*8va	*
!LO:TX:t=div.	!	!	!	!	!	!LO:TX:t=div.	!	!	!	!	!LO:TX:t=68	!
!LO:TX:t=24	!	!LO:TX:t=24	!	!LO:TX:t=24	!	!LO:TX:t=24	!	!LO:TX:t=24	!	!	!LO:TX:t=68	!
*	*	*	*	*	*	*	*	*	*	*^	*	*
2EE-X^v 2E-X	f >	2B-X^v	f >	2dd^v	f >	2g-X^v 2gg-X	f	2bb-X^v	f >	8gg-X^L	2.b-X	8dddn^L 8ggg-X 8bbb-X	f
.	.	.	.	.	.	.	.	.	.	8ff	.	8bb-X	.
.	.	.	.	.	.	.	.	.	.	8ff-XJ	.	8cccJ 8fff-X 8aaa-X	.
.	.	.	.	.	.	.	.	.	.	8ee-XL	.	8aa-XL	.
8ryy	.	8ryy	.	8ryy	.	8ryy	.	8ryy	.	8dd	.	8bb-X 8ddd 8ggg-X	.
8ryy	]	8ryy	]	8ryy	]	8ryy	.	8ryy	]	8ccJ	.	8gg-XJ	.
*	*	*	*	*	*	*	*	*	*	*v	*v	*	*
=72	=72	=72	=72	=72	=72	=72	=72	=72	=72	=72	=72	=72
*M12/8	*	*M12/8	*	*M12/8	*	*M12/8	*	*M12/8	*	*M12/8	*M12/8	*
!	!	!	!	!	!	!	!	!	!	!	!LO:TX:t=128	!
!LO:TX:t=44	!	!LO:TX:t=44	!	!LO:TX:t=44	!	!LO:TX:t=44	!	!LO:TX:t=44	!	!	!LO:TX:t=128	!
*^	*	*	*	*	*	*^	*	*	*	*	*	*
4A-X~	4AA-X~	mp	4A-X~	mp	4dd-X~	mp	4ff~	4f~	mp	4aa-X~	mf	8dd-XL	8aa-XL 8ddd 8fff-X	.
.	.	.	.	.	.	.	.	.	.	.	.	8g-X	8bb-X	.
8ryy	8ryy	.	8ryy	.	8ryy	.	8ryy	8ryy	.	8ryy	.	8gnJ	(>8bbnJ 8eee-X	.
4d-X~	4D-X~	.	4A-~	.	4cc~	.	4ff-X~	4f-X~	.	4aa-~	.	8a-XL	8cccL 8fff-X)	.
*	*	*	*	*	*	*	*	*	*	*	*	*	*X8va	*
.	.	.	.	.	.	.	.	.	.	.	.	8an	8r	.
8ryy	8ryy	.	8ryy	.	8ryy	.	8ryy	8ryy	.	8ryy	.	8b-XJ	(>8ffnJ 8bb-X 8dddn	.
4g-X~	4G-X~	.	4G-X~	.	4cc-X~	.	4ee-X~	4e-X~	.	4gg-X~	.	8cc-XL	8gg-XL 8ccc-X 8eee-X)	.
.	.	.	.	.	.	.	.	.	.	.	.	8ccn	8r	.
8ryy	8ryy	.	8ryy	.	8ryy	.	8ryy	8ryy	.	8ryy	.	8dd-XJ	(>8aanJ 8ddd-X	.
4E-X~	4EE-X~	.	4B-X~	.	4ddn~	.	4gg-X~	4g-X~	.	4bb-X~	.	8ddnL	8bb-XL 8dddn)	.
.	.	.	.	.	.	.	.	.	.	.	.	8ee-X	8r	.
8ryy	8ryy	.	8ryy	.	8ryy	.	8ryy	8ryy	.	8ryy	.	8eenJ	8ggnJ 8cccn	.
*v	*v	*	*	*	*	*	*v	*v	*	*	*	*	*	*
=	=	=	=	=	=	=	=	=	=	=	=	=
*-	*-	*-	*-	*-	*-	*-	*-	*-	*-	*-	*-	*-
!!!system-decoration: [({(s1,s2)})][(s3,s4,s5,s6,s7)]
!!!RDF**kern: > = above
!!!CDT: 1891/04/23-1953/03/05
!!!CBL: Sontsovka, Ukraine
!!!CDL: Moscow, Russia
!!!CNT: Russian
!!!AGN: Orchestral; Concerto
!!!MCN: Stock, Frédéric
!!!MDT: 1921/12/16
!!!MGN: Chicago Symphony Orchestra
!!!MLC: Chicago, Illinois, United States of America
!!!MPD: 1921
!!!MPN: Prokofiev, Sergei
!!!ODT: 1921
!!!PDT: 1923
!!!excerpt-start-measure: 65
!!!excerpt-end-measure: 72
!!!excerpt-start-time: 2:52
!!!excerpt-end-time: 3:09
!!!EEV: 2020/01/22
!!!ONB: Converted from MusicXML on 2020/01/22
